X:4645
T:no name Nr. 3 in Raheen Medley
O:england
N:IrTrad, 6/99
M:4/4
L:1/8
S:Patrick Street
R:reel
D:Life from Patrick Stree
K:D
D2 DF ED B,A,|D2 DE FA A2|Be ef e2 de|~f2 ed BA FE|
(3DED DF ED B,A,|D2 DE FA A2|Be ef e2 dB|
1 AF EF D2 FE:|2 AF EF D4||
AB de f2 fa|af df ed BA|AB de fe df|af df e2 dB|
AB de f2 fa|af df ed BA|dc dB Ad dB|
1 AF EF D4:|2 AF EF D2 FE||
D2 DF ED B,A,|D2 DE FA A2|Be (3eee e2 de|~f2 ed BA FE|
(3DED DF ED B,A,|D2 DE FA A2|Be ef e2 dB|
1 AF EF D2 FE:|2 AF EF D4||
AB de f2 fa|af df ed BA|AB de fe df|af df e2 dB|
AB de f2 fa|af df ed BA|dc dB Ad dB|
1 AF EF D4:|2 AF EF D4-||D4
